public/assets/img/main-point2.svg

<svg width="61" height="67" viewBox="0 0 61 67" fill="none" xmlns="http://www.w3.org/2000/svg">
<path d="M29.1622 0.948486C29.7605 0.948486 30.3749 0.948486 30.9731 0.948486C31.0378 0.996812 31.1024 1.04515 31.1833 1.07736C33.3014 1.64117 34.6434 2.96207 35.1446 5.12063C35.1931 5.31393 35.4841 5.55556 35.6943 5.60389C38.2328 6.15158 40.6743 6.9409 42.9864 8.10072C46.592 9.90489 49.6964 12.3534 52.2833 15.4463C52.5582 15.7845 52.8007 15.8329 53.2211 15.6879C55.6949 14.818 58.2657 15.8812 59.5107 18.2169C60.6749 20.3916 60.0281 23.1462 57.9909 24.6765C57.8615 24.7732 57.7322 24.8859 57.6028 24.9987C58.5406 27.9305 59.0257 30.9106 59.0257 33.9551C59.0257 37.0157 58.5244 40.0119 57.6028 42.9276C57.7483 43.0404 57.8615 43.137 57.9909 43.2176C60.0119 44.7479 60.6587 47.4863 59.5107 49.661C58.2657 52.0129 55.6949 53.0599 53.2211 52.1901C52.8007 52.0451 52.5744 52.0934 52.2833 52.4317C50.6503 54.4131 48.7586 56.1367 46.6405 57.6187C43.3259 59.9222 39.688 61.4525 35.7428 62.2418C35.3386 62.3224 35.1608 62.4835 35.0799 62.8862C34.9182 63.8205 34.4493 64.6098 33.8188 65.3025C33.0427 66.1562 32.0241 66.5751 30.9569 66.9295C30.3587 66.9295 29.7443 66.9295 29.146 66.9295C29.049 66.8811 28.9682 66.8167 28.8712 66.8006C26.7854 66.2207 25.4758 64.8998 24.9745 62.7573C24.926 62.564 24.635 62.3385 24.4248 62.2741C22.8241 61.7908 21.1749 61.4364 19.6066 60.8404C15.0308 59.1168 11.1504 56.3622 7.99748 52.6089C7.59327 52.1256 7.25373 52.0451 6.63932 52.2384C3.13073 53.4304 -0.636559 50.0798 0.0910287 46.4554C0.398233 44.9412 1.19049 43.7813 2.48398 42.9115C1.56237 39.9797 1.06115 36.9835 1.06115 33.9229C1.06115 30.8622 1.56237 27.866 2.48398 24.9504C2.33847 24.8376 2.22529 24.7409 2.09594 24.6604C0.0748591 23.1301 -0.571885 20.3916 0.576087 18.2169C1.82107 15.8812 4.39188 14.818 6.86568 15.6879C7.28607 15.8329 7.51243 15.7684 7.80346 15.4463C9.4365 13.4649 11.3282 11.7413 13.4463 10.2593C16.7447 7.95575 20.3988 6.42543 24.344 5.63611C24.7482 5.55556 24.926 5.39448 25.0069 4.99176C25.1686 4.05746 25.6375 3.26814 26.268 2.57546C27.0765 1.73782 28.0951 1.30288 29.1622 0.948486ZM9.16163 17.1377C9.19396 17.186 9.21013 17.2504 9.24247 17.3149C10.2288 18.6197 10.6006 20.0533 10.2934 21.6803C10.2611 21.8575 10.4713 22.1797 10.6653 22.2924C11.8618 22.9851 13.0744 23.6294 14.2709 24.2899C14.853 24.6121 15.4189 24.9181 16.001 25.2242C19.4449 20.2789 24.0529 17.4921 30.1 17.4921C36.1471 17.5082 40.7389 20.3111 44.1505 25.2242C45.6704 24.3866 47.1579 23.5328 48.6939 22.7596C49.5023 22.3569 49.9874 22.0025 49.7772 20.9232C49.5185 19.5379 50.1006 18.2653 50.9899 17.1699C46.8022 12.0957 41.4989 8.92227 35.0314 7.64968C34.3362 9.5505 33.0427 10.7264 31.0701 11.2258C31.0701 12.6273 31.0701 14.0126 31.0701 15.3818C30.3587 15.3818 29.7281 15.3818 29.0167 15.3818C29.0167 13.9643 29.0167 12.5789 29.0167 11.2097C27.028 10.7264 25.7668 9.50218 25.0877 7.6819C19.17 8.66453 13.22 12.0312 9.16163 17.1377ZM9.12929 50.7564C13.3331 55.8306 18.6364 59.004 25.0877 60.2766C25.783 58.3597 27.0926 57.1999 29.0329 56.7005C29.0329 55.299 29.0329 53.9298 29.0329 52.5445C29.7281 52.5445 30.391 52.5445 31.0863 52.5445C31.0863 53.962 31.0863 55.3312 31.0863 56.7166C33.0589 57.1998 34.3362 58.4241 35.0314 60.2766C41.515 58.9879 46.8022 55.8145 50.9737 50.7564C49.8904 49.3872 49.47 47.873 49.8257 46.1493C49.858 46.0205 49.7287 45.7788 49.5994 45.6983C47.7723 44.6834 45.9452 43.6847 44.1182 42.686C40.7066 47.5991 36.1147 50.402 30.0677 50.4181C23.9883 50.4181 19.3964 47.6152 15.9848 42.686C14.1416 43.6847 12.3307 44.6673 10.5198 45.6822C10.3743 45.7627 10.2449 46.0366 10.2611 46.1815C10.633 47.873 10.2126 49.371 9.12929 50.7564ZM30.0677 48.3884C38.0065 48.3884 44.5547 41.8644 44.5547 33.9551C44.5547 26.0457 38.0065 19.5218 30.0677 19.5218C22.1289 19.5218 15.5806 26.0457 15.5806 33.9551C15.5806 41.8483 22.1289 48.3723 30.0677 48.3884ZM55.6303 25.6591C53.7062 25.8524 52.1702 25.2081 50.9252 23.855C48.9688 24.9181 47.0609 25.9652 45.1045 27.0445C46.0908 29.2997 46.6082 31.571 46.6082 33.9712C46.6082 36.3553 46.0746 38.6266 45.1045 40.8496C47.0771 41.9289 49.0011 42.9759 50.9252 44.023C52.2025 42.6376 53.7547 42.0416 55.6303 42.2188C57.3765 36.6936 57.3765 31.2166 55.6303 25.6591ZM15.0147 40.8496C12.9936 36.2103 13.0259 31.6193 15.0147 27.0445C13.0259 25.9652 11.118 24.9181 9.19396 23.8711C7.91664 25.2564 6.36445 25.8524 4.5374 25.6914C2.72651 30.6689 2.77502 37.4829 4.55357 42.2188C6.39679 42.0416 7.94898 42.686 9.21013 44.023C11.1504 42.9598 13.0421 41.9128 15.0147 40.8496ZM30.0838 3.0265C28.4185 2.99429 26.9795 4.41185 26.9633 6.08715C26.9309 7.74634 28.3538 9.18 30.0353 9.19611C31.7007 9.22833 33.1397 7.81077 33.1559 6.13547C33.1882 4.47628 31.7815 3.04261 30.0838 3.0265ZM8.32086 20.5205C8.30469 18.8452 6.86568 17.4276 5.20031 17.4598C3.51878 17.4759 2.09594 18.9096 2.12828 20.5688C2.14444 22.2441 3.58345 23.6617 5.24882 23.6295C6.93036 23.6133 8.35319 22.1797 8.32086 20.5205ZM57.9909 20.5688C58.0232 18.9096 56.6004 17.4759 54.9188 17.4598C53.2535 17.4276 51.8145 18.8452 51.7983 20.5205C51.7659 22.1797 53.1888 23.6133 54.8703 23.6295C56.5357 23.6617 57.9747 22.2441 57.9909 20.5688ZM8.32086 47.3414C8.32086 45.6822 6.88185 44.2485 5.21648 44.2646C3.55112 44.2646 2.11211 45.6983 2.12828 47.3575C2.12828 49.0167 3.56728 50.4503 5.23265 50.4342C6.89802 50.4342 8.32086 49.0167 8.32086 47.3414ZM57.9909 47.3736C58.007 45.7144 56.5842 44.2807 54.9188 44.2646C53.2535 44.2485 51.8145 45.6661 51.7983 47.3253C51.7821 48.9844 53.205 50.4181 54.8703 50.4342C56.5357 50.4503 57.9747 49.0489 57.9909 47.3736ZM33.1559 61.8069C33.1882 60.1477 31.7654 58.7141 30.0838 58.6979C28.4185 58.6657 26.9795 60.0833 26.9633 61.7586C26.9309 63.4178 28.3538 64.8515 30.0353 64.8676C31.7007 64.8998 33.1397 63.4822 33.1559 61.8069Z" fill="white"/>
<path d="M33.4146 32.7791C33.7056 32.9885 33.9481 33.1979 34.2068 33.359C35.7752 34.3094 37.3435 35.2437 38.9119 36.1619C39.2514 36.3552 39.3808 36.5807 39.3646 36.9835C39.3323 37.9017 39.3484 38.836 39.3484 39.7541C39.3484 41.1878 38.8149 42.0577 37.4244 42.4282C36.0824 42.7826 34.6919 43.1209 33.3175 43.137C30.5042 43.2014 27.6747 43.1047 24.8613 42.9437C23.9397 42.8953 23.0181 42.5571 22.145 42.2027C21.1749 41.7999 20.6737 41.0106 20.706 39.9152C20.7383 38.9326 20.7383 37.9339 20.706 36.9512C20.6898 36.5807 20.8354 36.3713 21.1426 36.1941C22.7271 35.2759 24.2793 34.3255 25.8476 33.3912C26.1387 33.214 26.3974 32.9885 26.7046 32.763C25.7668 31.9253 25.12 30.9427 24.9584 29.7668C24.5703 27.0283 25.023 24.6603 27.6423 23.2428C30.8114 21.5192 34.8212 23.6455 35.1769 27.2538C35.3386 28.8325 35.2901 30.395 34.2877 31.7481C34.0451 32.0542 33.7541 32.3764 33.4146 32.7791ZM30.0676 41.3006C32.1534 41.0751 34.223 40.914 36.2926 40.624C37.2465 40.4952 37.2142 40.2857 37.3435 39.3353C37.5214 38.0144 37.004 37.3056 35.856 36.6935C34.4008 35.9042 33.075 34.8571 31.6845 33.9389C31.5228 33.8423 31.2965 33.8262 31.0863 33.8262C30.4072 33.8101 29.7281 33.8101 29.049 33.8262C28.855 33.8262 28.564 33.8262 28.467 33.9389C27.2866 35.2115 25.7183 35.9364 24.2469 36.7418C23.1475 37.3378 22.6462 38.0144 22.8079 39.2709C22.9373 40.3018 22.8888 40.479 23.9236 40.624C25.9446 40.9301 27.9981 41.0912 30.0676 41.3006ZM26.9794 28.2848C26.9794 28.5264 26.9633 28.7519 26.9794 28.9936C27.1735 30.685 28.4508 31.877 30.0515 31.877C31.6522 31.877 32.9618 30.685 33.1235 28.9936C33.1882 28.3976 33.172 27.7854 33.0589 27.2055C32.7355 25.353 30.9246 24.2737 29.1299 24.8214C27.7232 25.2564 26.9471 26.4645 26.9794 28.2848Z" fill="white"/>
<path d="M29.0652 7.10197C29.0652 6.4093 29.0652 5.78106 29.0652 5.12061C29.7281 5.12061 30.3587 5.12061 31.0539 5.12061C31.0539 5.76495 31.0539 6.4093 31.0539 7.10197C30.4072 7.10197 29.7604 7.10197 29.0652 7.10197Z" fill="white"/>
<path d="M6.21896 19.554C6.21896 20.2144 6.21896 20.8426 6.21896 21.5353C5.57222 21.5353 4.92547 21.5353 4.23022 21.5353C4.23022 20.891 4.23022 20.2466 4.23022 19.554C4.87697 19.554 5.50754 19.554 6.21896 19.554Z" fill="white"/>
<path d="M53.9002 19.554C54.5631 19.554 55.1937 19.554 55.8889 19.554C55.8889 20.1983 55.8889 20.8426 55.8889 21.5353C55.2422 21.5353 54.5955 21.5353 53.9002 21.5353C53.9002 20.891 53.9002 20.2627 53.9002 19.554Z" fill="white"/>
<path d="M6.23513 46.3749C6.23513 47.0353 6.23513 47.6636 6.23513 48.3401C5.55605 48.3401 4.90931 48.3401 4.23022 48.3401C4.23022 47.6958 4.23022 47.0514 4.23022 46.3749C4.8608 46.3749 5.50755 46.3749 6.23513 46.3749Z" fill="white"/>
<path d="M53.9164 46.3427C54.5793 46.3427 55.2099 46.3427 55.8889 46.3427C55.8889 47.0192 55.8889 47.6635 55.8889 48.3401C55.2422 48.3401 54.5955 48.3401 53.9164 48.3401C53.9164 47.7119 53.9164 47.0675 53.9164 46.3427Z" fill="white"/>
<path d="M29.0491 62.7735C29.0491 62.0969 29.0491 61.4687 29.0491 60.8082C29.7282 60.8082 30.3749 60.8082 31.054 60.8082C31.054 61.4687 31.054 62.0969 31.054 62.7735C30.4234 62.7735 29.7605 62.7735 29.0491 62.7735Z" fill="white"/>
</svg>

<svg width="61" height="67" fill="none" xmlns="http://www.w3.org/2000/svg"><path d="M29.162.948h1.811c.065.049.13.097.21.13 2.118.563 3.46 1.884 3.962 4.043.048.193.34.435.55.483 2.538.548 4.98 1.337 7.291 2.497a28.795 28.795 0 0 1 9.297 7.345c.275.338.518.387.938.242 2.474-.87 5.045.193 6.29 2.529 1.164 2.175.517 4.93-1.52 6.46-.13.096-.259.209-.388.322.938 2.931 1.423 5.912 1.423 8.956 0 3.06-.502 6.057-1.423 8.973.145.112.258.209.388.29 2.02 1.53 2.668 4.268 1.52 6.443-1.245 2.352-3.816 3.399-6.29 2.53-.42-.146-.647-.098-.938.24a28.267 28.267 0 0 1-5.642 5.188c-3.315 2.303-6.953 3.834-10.898 4.623-.404.08-.582.242-.663.644-.162.934-.63 1.724-1.261 2.416-.776.854-1.795 1.273-2.862 1.627h-1.811c-.097-.048-.178-.112-.275-.128-2.086-.58-3.395-1.901-3.896-4.044-.049-.193-.34-.418-.55-.483-1.6-.483-3.25-.838-4.818-1.434-4.576-1.723-8.457-4.478-11.61-8.231-.404-.483-.743-.564-1.358-.37-3.508 1.191-7.276-2.16-6.548-5.784.307-1.514 1.1-2.674 2.393-3.544-.922-2.931-1.423-5.928-1.423-8.988 0-3.06.501-6.057 1.423-8.973-.146-.112-.259-.21-.388-.29-2.021-1.53-2.668-4.268-1.52-6.443 1.245-2.336 3.816-3.399 6.29-2.53.42.146.646.081.937-.24a28.269 28.269 0 0 1 5.643-5.188c3.299-2.303 6.953-3.834 10.898-4.623.404-.08.582-.242.663-.644.162-.935.63-1.724 1.261-2.417.808-.837 1.827-1.272 2.894-1.627Zm-20 16.19c.032.048.048.112.08.177.987 1.305 1.359 2.738 1.051 4.365-.032.178.178.5.372.612 1.197.693 2.41 1.337 3.606 1.998.582.322 1.148.628 1.73.934 3.444-4.945 8.052-7.732 14.099-7.732 6.047.016 10.639 2.82 14.05 7.732 1.52-.837 3.008-1.691 4.544-2.464.808-.403 1.293-.758 1.083-1.837-.258-1.385.324-2.658 1.213-3.753-4.188-5.074-9.491-8.248-15.959-9.52-.695 1.9-1.988 3.076-3.96 3.576v4.156h-2.054V11.21c-1.989-.484-3.25-1.708-3.93-3.528-5.917.983-11.867 4.35-15.925 9.456Zm-.033 33.618c4.204 5.075 9.507 8.248 15.959 9.52.695-1.916 2.005-3.076 3.945-3.576v-4.156h2.053v4.173c1.973.483 3.25 1.707 3.945 3.56 6.484-1.29 11.771-4.462 15.943-9.52-1.084-1.37-1.504-2.884-1.148-4.608.032-.129-.097-.37-.227-.45-1.827-1.016-3.654-2.014-5.48-3.013-3.412 4.913-8.004 7.716-14.051 7.732-6.08 0-10.672-2.803-14.083-7.732a435.47 435.47 0 0 0-5.465 2.996c-.146.08-.275.355-.259.5.372 1.691-.048 3.189-1.132 4.574Zm20.939-2.368c7.939 0 14.487-6.524 14.487-14.433 0-7.91-6.548-14.433-14.487-14.433-7.94 0-14.487 6.524-14.487 14.433 0 7.893 6.548 14.417 14.487 14.433ZM55.63 25.66c-1.924.193-3.46-.45-4.705-1.804-1.956 1.063-3.864 2.11-5.82 3.19.986 2.255 1.503 4.526 1.503 6.926 0 2.384-.533 4.656-1.503 6.879 1.972 1.079 3.896 2.126 5.82 3.173 1.278-1.385 2.83-1.981 4.705-1.804 1.746-5.525 1.746-11.002 0-16.56ZM15.015 40.85c-2.021-4.639-1.99-9.23 0-13.804-1.99-1.08-3.897-2.127-5.821-3.174-1.277 1.385-2.83 1.981-4.657 1.82-1.81 4.978-1.762 11.792.017 16.528 1.843-.177 3.395.467 4.656 1.804 1.94-1.063 3.832-2.11 5.805-3.173ZM30.084 3.028c-1.665-.033-3.104 1.385-3.12 3.06-.033 1.66 1.39 3.093 3.071 3.11 1.666.031 3.105-1.386 3.12-3.062.033-1.659-1.373-3.092-3.071-3.108ZM8.32 20.52c-.016-1.675-1.455-3.092-3.12-3.06-1.682.016-3.105 1.45-3.073 3.109.016 1.675 1.455 3.093 3.12 3.06 1.682-.016 3.105-1.45 3.073-3.109Zm49.67.049c.032-1.66-1.39-3.093-3.072-3.11-1.665-.031-3.104 1.386-3.12 3.061-.033 1.66 1.39 3.093 3.071 3.11 1.666.032 3.105-1.386 3.12-3.061ZM8.32 47.34c0-1.659-1.44-3.093-3.105-3.076-1.665 0-3.104 1.433-3.088 3.093 0 1.659 1.44 3.092 3.105 3.076 1.665 0 3.088-1.417 3.088-3.093Zm49.67.033c.016-1.66-1.407-3.093-3.072-3.11-1.665-.016-3.104 1.402-3.12 3.061-.017 1.66 1.406 3.093 3.071 3.11 1.666.015 3.105-1.386 3.12-3.061ZM33.156 61.807c.032-1.66-1.39-3.093-3.072-3.11-1.665-.031-3.104 1.386-3.12 3.062-.033 1.659 1.39 3.093 3.071 3.109 1.666.032 3.105-1.386 3.12-3.061Z" fill="#fff"/><path d="M33.415 32.78c.29.209.533.418.792.579 1.568.95 3.136 1.885 4.705 2.803.34.193.469.419.453.822-.033.918-.017 1.852-.017 2.77 0 1.434-.533 2.304-1.924 2.674-1.342.355-2.732.693-4.106.709-2.814.064-5.643-.032-8.457-.193-.921-.049-1.843-.387-2.716-.741-.97-.403-1.471-1.192-1.439-2.288.032-.982.032-1.981 0-2.964-.016-.37.13-.58.437-.757 1.584-.918 3.136-1.869 4.705-2.803.29-.177.55-.402.857-.628-.938-.838-1.585-1.82-1.747-2.996-.388-2.739.065-5.107 2.684-6.524 3.17-1.724 7.18.402 7.535 4.01.162 1.58.113 3.142-.89 4.495-.242.306-.533.628-.872 1.031Zm-3.347 8.52c2.085-.225 4.155-.386 6.225-.676.953-.129.921-.338 1.05-1.289.178-1.32-.339-2.03-1.487-2.642-1.455-.789-2.781-1.836-4.172-2.754-.161-.097-.387-.113-.598-.113a42.973 42.973 0 0 0-2.037 0c-.194 0-.485 0-.582.113-1.18 1.273-2.749 1.997-4.22 2.803-1.1.596-1.6 1.272-1.44 2.529.13 1.03.082 1.208 1.117 1.353 2.02.306 4.074.467 6.144.677Zm-3.089-13.015c0 .241-.016.467 0 .709.195 1.691 1.472 2.883 3.073 2.883 1.6 0 2.91-1.192 3.072-2.883a6.02 6.02 0 0 0-.065-1.788c-.323-1.853-2.134-2.932-3.93-2.385-1.406.435-2.182 1.643-2.15 3.464ZM29.065 7.102V5.121h1.989v1.981h-1.989ZM6.219 19.554v1.981H4.23v-1.981H6.22ZM53.9 19.554h1.989v1.981H53.9v-1.981ZM6.235 46.375v1.965H4.23v-1.965h2.005ZM53.916 46.343h1.973v1.997h-1.973v-1.997ZM29.05 62.773v-1.965h2.004v1.965h-2.005Z" fill="#fff"/></svg>
